images/logo-academy.svg

<svg width="115" height="33" viewBox="0 0 115 33" fill="none" xmlns="http://www.w3.org/2000/svg"><g clip-path="url(#a)" fill="#000"><path d="M0 12.9v2.6h2.5v-2.6h-2.5Zm11.6-8.4c-1.6 0-2.8.7-3.6 1.7h-.1v-6.2h-2v15.5h2v-5.3c0-2.1 1.3-3.6 3.3-3.6 1.8 0 2.9 1.4 2.9 3.2v5.7h2v-6.1c.1-3-1.8-4.9-4.5-4.9Zm15 .3h-4.8v-3.7h-2v3.8h-1.9v2h1.9v6c0 1.7 1 2.7 2.7 2.7h4.1v-2h-3.7c-.7 0-1.1-.4-1.1-1.1v-5.7h4.8v-2Zm14.5-.2c-1.6 0-2.9.8-3.5 2.1h-.1c-.6-1.2-1.8-2.1-3.4-2.1-1.4 0-2.5.8-3.1 1.8h-.1v-1.6h-1.9v10.6h2v-5.4c0-2 1-3.5 2.6-3.5 1.5 0 2.4 1 2.4 2.6v6.3h2v-5.6c0-2.4 1.4-3.3 2.6-3.3 1.5 0 2.4 1 2.4 2.6v6.3h2v-6.5c.1-2.5-1.4-4.3-3.9-4.3Zm6.7 8.1c0 1.7 1 2.7 2.8 2.7h2v-2h-1.7c-.7 0-1.1-.4-1.1-1.1v-12.3h-2v12.7Zm-18.9 7c-.9-1.1-2.2-1.8-3.9-1.8-3.1 0-5.4 2.3-5.4 5.6s2.3 5.6 5.4 5.6c1.8 0 3-.8 3.8-1.9h.1v1.6h2v-10.6h-2v1.5Zm-3.6 7.4c-2.2 0-3.6-1.6-3.6-3.6s1.4-3.6 3.6-3.6 3.6 1.6 3.6 3.6c0 1.9-1.4 3.6-3.6 3.6Zm18.9-5.1c-.5-2.4-2.6-4.1-5.4-4.1a5.4 5.4 0 0 0-5.6 5.6c0 3.1 2.2 5.6 5.6 5.6 2.8 0 4.9-1.8 5.4-4.2h-2.1a3.4 3.4 0 0 1-3.3 2.3c-2.2 0-3.6-1.6-3.6-3.6s1.4-3.6 3.6-3.6c1.6 0 2.8 1 3.3 2.2h2.1v-.2Zm10.9-2.3c-.9-1.1-2.2-1.8-3.9-1.8-3.1 0-5.4 2.3-5.4 5.6s2.3 5.6 5.4 5.6c1.8 0 3-.8 3.8-1.9h.1v1.6h2v-10.6h-2v1.5Zm-3.6 7.4c-2.2 0-3.6-1.6-3.6-3.6s1.4-3.6 3.6-3.6 3.6 1.6 3.6 3.6c0 1.9-1.5 3.6-3.6 3.6Zm17.2-7.3c-.9-1.1-2.2-1.9-3.9-1.9-3.1 0-5.4 2.3-5.4 5.6s2.2 5.6 5.4 5.6c1.7 0 3-.8 3.8-1.8h.1v1.5h2v-15.4h-2v6.4Zm-3.6 7.3c-2.2 0-3.6-1.6-3.6-3.6s1.4-3.6 3.6-3.6 3.6 1.6 3.6 3.6c-.1 2-1.5 3.6-3.6 3.6Zm13.2-9.2c-3.3 0-5.5 2.5-5.5 5.6 0 3 2.1 5.6 5.5 5.6 2.5 0 4.5-1.3 5.2-3.6h-2.1c-.5 1-1.6 1.6-3 1.6-1.9 0-3.3-1.3-3.4-2.9h8.8c.2-3.6-2-6.3-5.5-6.3Zm0 1.9c1.7 0 3 1 3.3 2.6h-6.5c.3-1.5 1.5-2.6 3.2-2.6Zm19.9-1.9c-1.6 0-2.9.8-3.6 2h-.1c-.6-1.2-1.8-2-3.4-2-1.4 0-2.5.7-3.1 1.8v-1.5h-1.9v10.6h2v-5.4c0-2 1-3.4 2.6-3.5 1.5 0 2.4 1 2.4 2.6v6.3h2v-5.6c0-2.4 1.4-3.3 2.6-3.3 1.5 0 2.4 1 2.4 2.6v6.3h2v-6.5c.1-2.6-1.4-4.4-3.9-4.4Zm11.2 9.1-3.6-8.9h-2.2l4.8 11.6c-.3.9-.7 1.2-1.7 1.2h-2.5v2h2.5c1.8 0 2.8-.8 3.5-2.6l4.7-12.2h-2.1l-3.4 8.9Z"/></g><defs><clipPath id="a"><path fill="#fff" d="M0 0h115v33h-115z"/></clipPath></defs></svg>

<svg width="115" height="33" viewBox="0 0 115 33" fill="none" xmlns="http://www.w3.org/2000/svg">
<g clip-path="url(#clip0_33515_1190)">
<path d="M0 12.9V15.5H2.5V12.9H0Z" fill="black"/>
<path d="M11.6 4.5C10 4.5 8.8 5.2 8 6.2H7.9V0H5.9V15.5H7.9V10.2C7.9 8.1 9.2 6.6 11.2 6.6C13 6.6 14.1 8 14.1 9.8V15.5H16.1V9.4C16.2 6.4 14.3 4.5 11.6 4.5Z" fill="black"/>
<path d="M26.6 4.8H21.8V1.1H19.8V4.9H17.9V6.9H19.8V12.9C19.8 14.6 20.8 15.6 22.5 15.6H26.6V13.6H22.9C22.2 13.6 21.8 13.2 21.8 12.5V6.8H26.6V4.8Z" fill="black"/>
<path d="M41.1 4.6C39.5 4.6 38.2 5.4 37.6 6.7H37.5C36.9 5.5 35.7 4.6 34.1 4.6C32.7 4.6 31.6 5.4 31 6.4H30.9V4.8H29V15.4H31V10C31 8 32 6.5 33.6 6.5C35.1 6.5 36 7.5 36 9.1V15.4H38V9.8C38 7.4 39.4 6.5 40.6 6.5C42.1 6.5 43 7.5 43 9.1V15.4H45V8.9C45.1 6.4 43.6 4.6 41.1 4.6Z" fill="black"/>
<path d="M47.8 12.7C47.8 14.4 48.8 15.4 50.6 15.4H52.6V13.4H50.9C50.2 13.4 49.8 13 49.8 12.3V0H47.8V12.7Z" fill="black"/>
<path d="M28.9 19.7C28 18.6 26.7 17.9 25 17.9C21.9 17.9 19.6 20.2 19.6 23.5C19.6 26.8 21.9 29.1 25 29.1C26.8 29.1 28 28.3 28.8 27.2H28.9V28.8H30.9V18.2H28.9V19.7ZM25.3 27.1C23.1 27.1 21.7 25.5 21.7 23.5C21.7 21.5 23.1 19.9 25.3 19.9C27.5 19.9 28.9 21.5 28.9 23.5C28.9 25.4 27.5 27.1 25.3 27.1Z" fill="black"/>
<path d="M44.2 22C43.7 19.6 41.6 17.9 38.8 17.9C35.4 17.9 33.2 20.4 33.2 23.5C33.2 26.6 35.4 29.1 38.8 29.1C41.6 29.1 43.7 27.3 44.2 24.9H42.1C41.7 26.2 40.4 27.2 38.8 27.2C36.6 27.2 35.2 25.6 35.2 23.6C35.2 21.6 36.6 20 38.8 20C40.4 20 41.6 21 42.1 22.2H44.2V22Z" fill="black"/>
<path d="M55.1 19.7C54.2 18.6 52.9 17.9 51.2 17.9C48.1 17.9 45.8 20.2 45.8 23.5C45.8 26.8 48.1 29.1 51.2 29.1C53 29.1 54.2 28.3 55 27.2H55.1V28.8H57.1V18.2H55.1V19.7ZM51.5 27.1C49.3 27.1 47.9 25.5 47.9 23.5C47.9 21.5 49.3 19.9 51.5 19.9C53.7 19.9 55.1 21.5 55.1 23.5C55.1 25.4 53.6 27.1 51.5 27.1Z" fill="black"/>
<path d="M68.7 19.8C67.8 18.7 66.5 17.9 64.8 17.9C61.7 17.9 59.4 20.2 59.4 23.5C59.4 26.8 61.6 29.1 64.8 29.1C66.5 29.1 67.8 28.3 68.6 27.3H68.7V28.8H70.7V13.4H68.7V19.8ZM65.1 27.1C62.9 27.1 61.5 25.5 61.5 23.5C61.5 21.5 62.9 19.9 65.1 19.9C67.3 19.9 68.7 21.5 68.7 23.5C68.6 25.5 67.2 27.1 65.1 27.1Z" fill="black"/>
<path d="M78.3 17.9C75 17.9 72.8 20.4 72.8 23.5C72.8 26.5 74.9 29.1 78.3 29.1C80.8 29.1 82.8 27.8 83.5 25.5H81.4C80.9 26.5 79.8 27.1 78.4 27.1C76.5 27.1 75.1 25.8 75 24.2H83.8C84 20.6 81.8 17.9 78.3 17.9ZM78.3 19.8C80 19.8 81.3 20.8 81.6 22.4H75.1C75.4 20.9 76.6 19.8 78.3 19.8Z" fill="black"/>
<path d="M98.2 17.9C96.6 17.9 95.3 18.7 94.6 19.9H94.5C93.9 18.7 92.7 17.9 91.1 17.9C89.7 17.9 88.6 18.6 88 19.7V18.2H86.1V28.8H88.1V23.4C88.1 21.4 89.1 20 90.7 19.9C92.2 19.9 93.1 20.9 93.1 22.5V28.8H95.1V23.2C95.1 20.8 96.5 19.9 97.7 19.9C99.2 19.9 100.1 20.9 100.1 22.5V28.8H102.1V22.3C102.2 19.7 100.7 17.9 98.2 17.9Z" fill="black"/>
<path d="M109.4 27L105.8 18.1H103.6L108.4 29.7C108.1 30.6 107.7 30.9 106.7 30.9H104.2V32.9H106.7C108.5 32.9 109.5 32.1 110.2 30.3L114.9 18.1H112.8L109.4 27Z" fill="black"/>
</g>
<defs>
<clipPath id="clip0_33515_1190">
<rect width="115" height="33" fill="white"/>
</clipPath>
</defs>
</svg>
